Newaita-dark/.LP/32/audio-volume-high.svg

<?xml version="1.0" encoding="UTF-8"?>
<svg xmlns="http://www.w3.org/2000/svg" xmlns:xlink="http://www.w3.org/1999/xlink" width="32pt" height="32pt" viewBox="0 0 32 32" version="1.1">
<defs>
<filter id="alpha" filterUnits="objectBoundingBox" x="0%" y="0%" width="100%" height="100%">
  <feColorMatrix type="matrix" in="SourceGraphic" values="0 0 0 0 1 0 0 0 0 1 0 0 0 0 1 0 0 0 1 0"/>
</filter>
<mask id="mask0">
  <g filter="url(#alpha)">
<rect x="0" y="0" width="32" height="32" style="fill:rgb(0%,0%,0%);fill-opacity:0.988235;stroke:none;"/>
  </g>
</mask>
<clipPath id="clip1">
  <rect x="0" y="0" width="32" height="32"/>
</clipPath>
<g id="surface5" clip-path="url(#clip1)">
<path style=" stroke:none;fill-rule:nonzero;fill:rgb(25.882354%,25.882354%,25.882354%);fill-opacity:1;" d="M 3.96875 9.511719 C 2.503906 9.511719 1.324219 10.691406 1.324219 12.15625 L 1.324219 20.09375 C 1.324219 21.5625 2.503906 22.742188 3.96875 22.742188 Z M 3.96875 9.511719 "/>
</g>
<mask id="mask1">
  <g filter="url(#alpha)">
<rect x="0" y="0" width="32" height="32" style="fill:rgb(0%,0%,0%);fill-opacity:0.988235;stroke:none;"/>
  </g>
</mask>
<clipPath id="clip2">
  <rect x="0" y="0" width="32" height="32"/>
</clipPath>
<g id="surface8" clip-path="url(#clip2)">
<path style=" stroke:none;fill-rule:nonzero;fill:rgb(25.882354%,64.705884%,96.078432%);fill-opacity:1;" d="M 14.554688 2.894531 L 14.554688 29.355469 C 16.019531 29.355469 17.199219 28.175781 17.199219 26.710938 L 17.199219 5.542969 C 17.199219 4.078125 16.019531 2.894531 14.554688 2.894531 Z M 14.554688 2.894531 "/>
</g>
<mask id="mask2">
  <g filter="url(#alpha)">
<rect x="0" y="0" width="32" height="32" style="fill:rgb(0%,0%,0%);fill-opacity:0.988235;stroke:none;"/>
  </g>
</mask>
<clipPath id="clip3">
  <rect x="0" y="0" width="32" height="32"/>
</clipPath>
<g id="surface12" clip-path="url(#clip3)">
<path style=" stroke:none;fill-rule:nonzero;fill:rgb(25.882354%,25.882354%,25.882354%);fill-opacity:1;" d="M 19.84375 4.292969 L 19.84375 6.957031 C 24.34375 7.597656 27.785156 11.445312 27.785156 16.125 C 27.785156 20.808594 24.34375 24.65625 19.84375 25.292969 L 19.84375 27.960938 C 25.816406 27.308594 30.429688 22.277344 30.429688 16.125 C 30.429688 9.976562 25.816406 4.945312 19.84375 4.292969 Z M 19.84375 4.292969 "/>
</g>
<mask id="mask3">
  <g filter="url(#alpha)">
<rect x="0" y="0" width="32" height="32" style="fill:rgb(0%,0%,0%);fill-opacity:0.988235;stroke:none;"/>
  </g>
</mask>
<clipPath id="clip4">
  <rect x="0" y="0" width="32" height="32"/>
</clipPath>
<g id="surface15" clip-path="url(#clip4)">
<path style=" stroke:none;fill-rule:nonzero;fill:rgb(25.882354%,25.882354%,25.882354%);fill-opacity:1;" d="M 19.84375 9.644531 L 19.84375 12.382812 C 21.390625 12.925781 22.492188 14.390625 22.492188 16.125 C 22.492188 17.859375 21.390625 19.328125 19.84375 19.871094 L 19.84375 22.609375 C 22.871094 22 25.136719 19.339844 25.136719 16.125 C 25.136719 12.914062 22.871094 10.253906 19.84375 9.644531 Z M 19.84375 9.644531 "/>
</g>
</defs>
<g id="surface1">
<use xlink:href="#surface5" mask="url(#mask0)"/>
<path style=" stroke:none;fill-rule:evenodd;fill:rgb(25.882354%,25.882354%,25.882354%);fill-opacity:1;" d="M 13.226562 2.894531 C 13.214844 2.894531 13.203125 2.898438 13.191406 2.898438 C 12.90625 2.90625 12.628906 3.007812 12.402344 3.1875 L 5.789062 8.476562 C 5.476562 8.730469 5.292969 9.109375 5.292969 9.511719 L 5.292969 22.742188 C 5.292969 23.144531 5.476562 23.523438 5.789062 23.773438 L 12.402344 29.066406 C 12.65625 29.269531 12.949219 29.359375 13.230469 29.359375 L 13.230469 2.894531 C 13.230469 2.894531 13.226562 2.894531 13.226562 2.894531 Z M 13.226562 2.894531 "/>
<use xlink:href="#surface8" mask="url(#mask1)"/>
<use xlink:href="#surface12" mask="url(#mask2)"/>
<use xlink:href="#surface15" mask="url(#mask3)"/>
</g>
</svg>

<svg xmlns="http://www.w3.org/2000/svg" xmlns:xlink="http://www.w3.org/1999/xlink" width="32pt" height="32pt" viewBox="0 0 32 32"><defs><filter id="a" filterUnits="objectBoundingBox" x="0%" y="0%" width="100%" height="100%"><feColorMatrix in="SourceGraphic" values="0 0 0 0 1 0 0 0 0 1 0 0 0 0 1 0 0 0 1 0"/></filter><mask id="g"><path fill-opacity=".988" d="M0 0h32v32H0z" filter="url(#a)"/></mask><clipPath id="b"><path d="M0 0h32v32H0z"/></clipPath><g id="f" clip-path="url(#b)"><path d="M3.969 9.512a2.639 2.639 0 0 0-2.645 2.644v7.938a2.64 2.64 0 0 0 2.645 2.648zm0 0" fill="#424242"/></g><mask id="i"><path fill-opacity=".988" d="M0 0h32v32H0z" filter="url(#a)"/></mask><clipPath id="c"><path d="M0 0h32v32H0z"/></clipPath><g id="h" clip-path="url(#c)"><path d="M14.555 2.895v26.46a2.639 2.639 0 0 0 2.644-2.644V5.543a2.642 2.642 0 0 0-2.644-2.648zm0 0" fill="#42a5f5"/></g><mask id="k"><path fill-opacity=".988" d="M0 0h32v32H0z" filter="url(#a)"/></mask><clipPath id="d"><path d="M0 0h32v32H0z"/></clipPath><g id="j" clip-path="url(#d)"><path d="M19.844 4.293v2.664a9.245 9.245 0 0 1 7.941 9.168 9.239 9.239 0 0 1-7.941 9.168v2.668A11.875 11.875 0 0 0 30.43 16.125c0-6.148-4.614-11.18-10.586-11.832zm0 0" fill="#424242"/></g><mask id="m"><path fill-opacity=".988" d="M0 0h32v32H0z" filter="url(#a)"/></mask><clipPath id="e"><path d="M0 0h32v32H0z"/></clipPath><g id="l" clip-path="url(#e)"><path d="M19.844 9.645v2.738a3.956 3.956 0 0 1 2.648 3.742 3.962 3.962 0 0 1-2.648 3.746v2.738a6.597 6.597 0 0 0 5.293-6.484 6.596 6.596 0 0 0-5.293-6.48zm0 0" fill="#424242"/></g></defs><use xlink:href="#f" mask="url(#g)"/><path d="M13.227 2.895l-.036.003a1.33 1.33 0 0 0-.789.29L5.79 8.476a1.334 1.334 0 0 0-.496 1.035v13.23c0 .403.184.781.496 1.031l6.613 5.293c.254.204.547.293.828.293V2.895h-.003zm0 0" fill-rule="evenodd" fill="#424242"/><use xlink:href="#h" mask="url(#i)"/><use xlink:href="#j" mask="url(#k)"/><use xlink:href="#l" mask="url(#m)"/></svg>
